logos/tensorflow.svg

<?xml version="1.0" encoding="UTF-8"?>
<svg width="256px" height="274px" viewBox="0 0 256 274" version="1.1" xmlns="http://www.w3.org/2000/svg" xmlns:xlink="http://www.w3.org/1999/xlink" preserveAspectRatio="xMidYMid">
		<g>
				<path d="M145.726081,42.0651946 L145.726081,84.1347419 L218.586952,126.204312 L218.586952,84.1347419 L145.726081,42.0651946 Z M-1.98726454e-07,84.1347419 L-1.98726454e-07,126.204312 L36.4304238,147.234755 L36.4304238,105.169527 L-1.98726454e-07,84.1347419 Z M109.291294,105.169527 L72.8608701,126.204312 L72.8608701,252.404316 L109.291294,273.439101 L109.291294,189.304303 L145.726081,210.339088 L145.726081,168.26954 L109.291294,147.234755 L109.291294,105.169527 Z" fill="#E55B2D"></path>
				<path d="M145.726081,42.0651946 L36.4304238,105.169527 L36.4304238,147.234755 L109.291294,105.169527 L109.291294,147.234755 L145.726081,126.204312 L145.726081,42.0651946 Z M255.021717,63.0999794 L218.586952,84.1347419 L218.586952,126.204312 L255.021717,105.169527 L255.021717,63.0999794 Z M182.156505,147.234755 L145.726081,168.26954 L145.726081,210.339088 L182.156505,189.304303 L182.156505,147.234755 Z M145.726081,210.339088 L109.291294,189.304303 L109.291294,273.439101 L145.726081,252.404316 L145.726081,210.339088 Z" fill="#ED8E24"></path>
				<path d="M145.726081,-3.41864288e-05 L-1.98726454e-07,84.1347419 L36.4304238,105.169527 L145.726081,42.0651946 L218.586952,84.1347419 L255.021717,63.0999794 L145.726081,-3.41864288e-05 Z M145.726081,126.204312 L109.291294,147.234755 L145.726081,168.26954 L182.156505,147.234755 L145.726081,126.204312 Z" fill="#F8BF3C"></path>
		</g>
</svg>

<svg preserveAspectRatio="xMidYMid" viewBox="0 0 256 274" xmlns="http://www.w3.org/2000/svg">
  <path fill="#E55B2D" d="M145.726 42.065v42.07l72.861 42.07v-42.07l-72.86-42.07ZM0 84.135v42.07l36.43 21.03V105.17L0 84.135Zm109.291 21.035-36.43 21.034v126.2l36.43 21.035v-84.135l36.435 21.035v-42.07l-36.435-21.034V105.17Z"/>
  <path fill="#ED8E24" d="M145.726 42.065 36.43 105.17v42.065l72.861-42.065v42.065l36.435-21.03v-84.14ZM255.022 63.1l-36.435 21.035v42.07l36.435-21.035V63.1Zm-72.865 84.135-36.43 21.035v42.07l36.43-21.036v-42.07Zm-36.43 63.104-36.436-21.035v84.135l36.435-21.035V210.34Z"/>
  <path fill="#F8BF3C" d="M145.726 0 0 84.135l36.43 21.035 109.296-63.105 72.861 42.07L255.022 63.1 145.726 0Zm0 126.204-36.435 21.03 36.435 21.036 36.43-21.035-36.43-21.03Z"/>
</svg>
